dist/icons/spending.jp/tourism.svg

<svg xmlns="http://www.w3.org/2000/svg" width="100" height="100"><circle fill="#B2B2B2" cx="50" cy="50" r="50"/><path d="M95.893 61.754c0-2.434-11.936-7.411-16.842-8.021-4.906-.611-12.258-8.479-25.438-8.479-.886 0-1.762.246-2.625.246h-48.771c-.092.991-.148 1.992-.179 3h.962c.829 0 1.5.671 1.5 1.5v3c0 .828-.671 1.5-1.5 1.5h-.783c.321 3.452 1.004 6.799 2.018 10h72.16c11.234 0 19.498.049 19.498-2.746zm-84.393-8.754c0 .828-.671 1.5-1.5 1.5h-2c-.829 0-1.5-.672-1.5-1.5v-3c0-.829.671-1.5 1.5-1.5h2c.829 0 1.5.671 1.5 1.5v3zm7 0c0 .828-.671 1.5-1.5 1.5h-2c-.829 0-1.5-.672-1.5-1.5v-3c0-.829.671-1.5 1.5-1.5h2c.829 0 1.5.671 1.5 1.5v3zm7 0c0 .828-.671 1.5-1.5 1.5h-2c-.829 0-1.5-.672-1.5-1.5v-3c0-.829.671-1.5 1.5-1.5h2c.829 0 1.5.671 1.5 1.5v3zm6 0c0 .828-.671 1.5-1.5 1.5h-2c-.829 0-1.5-.672-1.5-1.5v-3c0-.829.671-1.5 1.5-1.5h2c.829 0 1.5.671 1.5 1.5v3zm7 0c0 .828-.671 1.5-1.5 1.5h-2c-.829 0-1.5-.672-1.5-1.5v-3c0-.829.671-1.5 1.5-1.5h2c.829 0 1.5.671 1.5 1.5v3zm7 0c0 .828-.671 1.5-1.5 1.5h-2c-.829 0-1.5-.672-1.5-1.5v-3c0-.829.671-1.5 1.5-1.5h2c.829 0 1.5.671 1.5 1.5v3zm7 0c0 .828-.672 1.5-1.5 1.5h-2c-.829 0-1.5-.672-1.5-1.5v-3c0-.829.671-1.5 1.5-1.5h2c.828 0 1.5.671 1.5 1.5v3zm8.217-2.016c-3.385-.691-4.751-1.484-4.751-1.484h9.612l5.244 2.273s-6.72-.099-10.105-.789z"/></svg>

<?xml version="1.0" encoding="utf-8"?>
<!-- Generator: Adobe Illustrator 15.1.0, SVG Export Plug-In . SVG Version: 6.00 Build 0)  -->
<!DOCTYPE svg PUBLIC "-//W3C//DTD SVG 1.1//EN" "http://www.w3.org/Graphics/SVG/1.1/DTD/svg11.dtd">
<svg version="1.1" id="Ebene_1" xmlns="http://www.w3.org/2000/svg" xmlns:xlink="http://www.w3.org/1999/xlink" x="0px" y="0px"
	 width="100px" height="100px" viewBox="0 0 100 100" enable-background="new 0 0 100 100" xml:space="preserve">
<circle fill="#B2B2B2" cx="50" cy="50" r="50"/>
<path d="M95.893,61.754c0-2.434-11.936-7.411-16.842-8.021c-4.906-0.611-12.258-8.479-25.438-8.479
	c-0.886,0-1.762,0.246-2.625,0.246H2.217c-0.092,0.991-0.148,1.992-0.179,3H3c0.829,0,1.5,0.671,1.5,1.5v3
	c0,0.828-0.671,1.5-1.5,1.5H2.217c0.321,3.452,1.004,6.799,2.018,10h47.41c0.505,0,1.158,0,1.928,0c6.255,0,20.113,0,22.822,0
	C87.629,64.5,95.893,64.549,95.893,61.754z M11.5,53c0,0.828-0.671,1.5-1.5,1.5H8c-0.829,0-1.5-0.672-1.5-1.5v-3
	c0-0.829,0.671-1.5,1.5-1.5h2c0.829,0,1.5,0.671,1.5,1.5V53z M18.5,53c0,0.828-0.671,1.5-1.5,1.5h-2c-0.829,0-1.5-0.672-1.5-1.5v-3
	c0-0.829,0.671-1.5,1.5-1.5h2c0.829,0,1.5,0.671,1.5,1.5V53z M25.5,53c0,0.828-0.671,1.5-1.5,1.5h-2c-0.829,0-1.5-0.672-1.5-1.5v-3
	c0-0.829,0.671-1.5,1.5-1.5h2c0.829,0,1.5,0.671,1.5,1.5V53z M31.5,53c0,0.828-0.671,1.5-1.5,1.5h-2c-0.829,0-1.5-0.672-1.5-1.5v-3
	c0-0.829,0.671-1.5,1.5-1.5h2c0.829,0,1.5,0.671,1.5,1.5V53z M38.5,53c0,0.828-0.671,1.5-1.5,1.5h-2c-0.829,0-1.5-0.672-1.5-1.5v-3
	c0-0.829,0.671-1.5,1.5-1.5h2c0.829,0,1.5,0.671,1.5,1.5V53z M45.5,53c0,0.828-0.671,1.5-1.5,1.5h-2c-0.829,0-1.5-0.672-1.5-1.5v-3
	c0-0.829,0.671-1.5,1.5-1.5h2c0.829,0,1.5,0.671,1.5,1.5V53z M52.5,53c0,0.828-0.672,1.5-1.5,1.5h-2c-0.829,0-1.5-0.672-1.5-1.5v-3
	c0-0.829,0.671-1.5,1.5-1.5h2c0.828,0,1.5,0.671,1.5,1.5V53z M60.717,50.984c-3.385-0.691-4.751-1.484-4.751-1.484h9.612
	l5.244,2.273C70.822,51.773,64.102,51.674,60.717,50.984z"/>
</svg>
